X: 33460
T: Rachael On The Rock
R: mazurka
M: 3/4
K: Dmajor
|:DF A2 A2|dc B2 B2|ed (3cdc B2|A2 F4|
DF (3ABA A2|dc (3BCB B2|ed c2 B2|C2 d4:|
|:fg af d2|A2 c2 B2|ef ge c2|A2 B2 A2|
fg af d2|A2 c2 B2|ef ge c2|Bc d4:|

